variables
endvar

forward
turn -60
forward
turn -60
forward
turn 60
forward
turn 60
forward
turn 60
forward
turn 60
forward
turn -60
forward
turn -60
forward
turn -60
forward
turn 60
forward
turn 60
forward
turn -60
forward
turn -60
forward
turn -60
forward
turn -60
forward
turn 60
forward
turn 60
forward
turn -60
forward
turn -60
forward
turn -60
forward
turn 60
forward
turn 60
forward
turn 60
forward
turn 60
forward
turn -60
forward
turn -60
forward
turn 60
forward
turn 60
forward
turn 60
forward
turn -60
forward
turn -60
forward
turn -60
forward
turn -60
forward
turn 60
forward
turn 60
forward
turn 60
forward
turn -60
forward
turn -60
forward
turn 60
forward
turn 60
forward
turn 60
forward
turn 60
forward
turn -60
forward
turn -60
forward
turn 60
forward
turn 60
forward
turn 60
forward
turn -60
forward
turn -60
forward
turn -60
forward
turn -60
forward
turn 60
forward
turn 60
forward
turn 60
forward
turn -60
forward
turn -60
forward
turn 60
forward
turn 60
forward
turn 60
forward
turn 60
forward
turn -60
forward
turn -60
forward
turn -60
forward
turn 60
forward
turn 60
forward
turn -60
forward
turn -60
forward
turn -60
forward
turn -60
forward
turn 60
forward
turn 60
forward
turn -60
forward
turn -60
forward
turn -60
forward
turn 60
forward
turn 60
forward
turn 60
forward
turn 60
forward
turn -60
forward
turn -60
forward
turn -60
forward
turn 60
forward
turn 60
forward
turn -60
forward
turn -60
forward
turn -60
forward
turn -60
forward
turn 60
forward
turn 60
forward
turn 60
forward
turn -60
forward
turn -60
forward
turn 60
forward
turn 60
forward
turn 60
forward
turn 60
forward
turn -60
forward
turn -60
forward
turn 60
forward
turn 60
forward
turn 60
forward
turn -60
forward
turn -60
forward
turn -60
forward
turn -60
forward
turn 60
forward
turn 60
forward
turn -60
forward
turn -60
forward
turn -60
forward
turn 60
forward
turn 60
forward
turn 60
forward
turn 60
forward
turn -60
forward
turn -60
forward
turn -60
forward
turn 60
forward
turn 60
forward
turn -60
forward
turn -60
forward
turn -60
forward
turn -60
forward
turn 60
forward
turn 60
forward
turn -60
forward
turn -60
forward
turn -60
forward
turn 60
forward
turn 60
forward
turn 60
forward
turn 60
forward
turn -60
forward
turn -60
forward
turn -60
forward
turn 60
forward
turn 60
forward
turn -60
forward
turn -60
forward
turn -60
forward
turn -60
forward
turn 60
forward
turn 60
forward
turn 60
forward
turn -60
forward
turn -60
forward
turn 60
forward
turn 60
forward
turn 60
forward
turn 60
forward
turn -60
forward
turn -60
forward
turn 60
forward
turn 60
forward
turn 60
forward
turn -60
forward
turn -60
forward
turn -60
forward
turn -60
forward
turn 60
forward
turn 60
forward
turn -60
forward
turn -60
forward
turn -60
forward
turn 60
forward
turn 60
forward
turn 60
forward
turn 60
forward
turn -60
forward
turn -60
forward
turn -60
forward
turn 60
forward
turn 60
forward
turn -60
forward
turn -60
forward
turn -60
forward
turn -60
forward
turn 60
forward
turn 60
forward
turn -60
forward
turn -60
forward
turn -60
forward
turn 60
forward
turn 60
forward
turn 60
forward
turn 60
forward
turn -60
forward
turn -60
forward
turn 60
forward
turn 60
forward
turn 60
forward
turn -60
forward
turn -60
forward
turn -60
forward
turn -60
forward
turn 60
forward
turn 60
forward
turn 60
forward
turn -60
forward
turn -60
forward
turn 60
forward
turn 60
forward
turn 60
forward
turn 60
forward
turn -60
forward
turn -60
forward
turn 60
forward
turn 60
forward
turn 60
forward
turn -60
forward
turn -60
forward
turn -60
forward
turn -60
forward
turn 60
forward
turn 60
forward
turn 60
forward
turn -60
forward
turn -60
forward
turn 60
forward
turn 60
forward
turn 60
forward
turn 60
forward
turn -60
forward
turn -60
forward
turn -60
forward
turn 60
forward
turn 60
forward
turn -60
forward
turn -60
forward
turn -60
forward
turn -60
forward
turn 60
forward
turn 60
forward
turn -60
forward
turn -60
forward
turn -60
forward
turn 60
forward
turn 60
forward
turn 60
forward
turn 60
forward
turn -60
forward
turn -60
forward
turn 60
forward
turn 60
forward
turn 60
forward
turn -60
forward
turn -60
forward
turn -60
forward
turn -60
forward
turn 60
forward
turn 60
forward
turn 60
forward
turn -60
forward
turn -60
forward
turn 60
forward
turn 60
forward
turn 60
forward
turn 60
forward
turn -60
forward
turn -60
forward
turn 60
forward
turn 60
forward
turn 60
forward
turn -60
forward
turn -60
forward
turn -60
forward
turn -60
forward
turn 60
forward
turn 60
forward
turn -60
forward
turn -60
forward
turn -60
forward
turn 60
forward
turn 60
forward
turn 60
forward
turn 60
forward
turn -60
forward
turn -60
forward
turn -60
forward
turn 60
forward
turn 60
forward
turn -60
forward
turn -60
forward
turn -60
forward
turn -60
forward
turn 60
forward
turn 60
forward
turn -60
forward
turn -60
forward
turn -60
forward
turn 60
forward
turn 60
forward
turn 60
forward
turn 60
forward
turn -60
forward
turn -60
forward
turn -60
forward
turn 60
forward
turn 60
forward
turn -60
forward
turn -60
forward
turn -60
forward
turn -60
forward
turn 60
forward
turn 60
forward
turn 60
forward
turn -60
forward
turn -60
forward
turn 60
forward
turn 60
forward
turn 60
forward
turn 60
forward
turn -60
forward
turn -60
forward
turn 60
forward
turn 60
forward
turn 60
forward
turn -60
forward
turn -60
forward
turn -60
forward
turn -60
forward
turn 60
forward
turn 60
forward
turn 60
forward
turn -60
forward
turn -60
forward
turn 60
forward
turn 60
forward
turn 60
forward
turn 60
forward
turn -60
forward
turn -60
forward
turn -60
forward
turn 60
forward
turn 60
forward
turn -60
forward
turn -60
forward
turn -60
forward
turn -60
forward
turn 60
forward
turn 60
forward
turn -60
forward
turn -60
forward
turn -60
forward
turn 60
forward
turn 60
forward
turn 60
forward
turn 60
forward
turn -60
forward
turn -60
forward
turn 60
forward
turn 60
forward
turn 60
forward
turn -60
forward
turn -60
forward
turn -60
forward
turn -60
forward
turn 60
forward
turn 60
forward
turn 60
forward
turn -60
forward
turn -60
forward
turn 60
forward
turn 60
forward
turn 60
forward
turn 60
forward
turn -60
forward
turn -60
forward
turn 60
forward
turn 60
forward
turn 60
forward
turn -60
forward
turn -60
forward
turn -60
forward
turn -60
forward
turn 60
forward
turn 60
forward
turn 60
forward
turn -60
forward
turn -60
forward
turn 60
forward
turn 60
forward
turn 60
forward
turn 60
forward
turn -60
forward
turn -60
forward
turn -60
forward
turn 60
forward
turn 60
forward
turn -60
forward
turn -60
forward
turn -60
forward
turn -60
forward
turn 60
forward
turn 60
forward
turn -60
forward
turn -60
forward
turn -60
forward
turn 60
forward
turn 60
forward
turn 60
forward
turn 60
forward
turn -60
forward
turn -60
forward
turn 60
forward
turn 60
forward
turn 60
forward
turn -60
forward
turn -60
forward
turn -60
forward
turn -60
forward
turn 60
forward
turn 60
forward
turn 60
forward
turn -60
forward
turn -60
forward
turn 60
forward
turn 60
forward
turn 60
forward
turn 60
forward
turn -60
forward
turn -60
forward
turn 60
forward
turn 60
forward
turn 60
forward
turn -60
forward
turn -60
forward
turn -60
forward
turn -60
forward
turn 60
forward
turn 60
forward
turn -60
forward
turn -60
forward
turn -60
forward
turn 60
forward
turn 60
forward
turn 60
forward
turn 60
forward
turn -60
forward
turn -60
forward
turn -60
forward
turn 60
forward
turn 60
forward
turn -60
forward
turn -60
forward
turn -60
forward
turn -60
forward
turn 60
forward
turn 60
forward
turn -60
forward
turn -60
forward
turn -60
forward
turn 60
forward
turn 60
forward
turn 60
forward
turn 60
forward
turn -60
forward
turn -60
forward
turn -60
forward
turn 60
forward
turn 60
forward
turn -60
forward
turn -60
forward
turn -60
forward
turn -60
forward
turn 60
forward
turn 60
forward
turn 60
forward
turn -60
forward
turn -60
forward
turn 60
forward
turn 60
forward
turn 60
forward
turn 60
forward
turn -60
forward
turn -60
forward
turn 60
forward
turn 60
forward
turn 60
forward
turn -60
forward
turn -60
forward
turn -60
forward
turn -60
forward
turn 60
forward
turn 60
forward
turn 60
forward
turn -60
forward
turn -60
forward
turn 60
forward
turn 60
forward
turn 60
forward
turn 60
forward
turn -60
forward
turn -60
forward
turn -60
forward
turn 60
forward
turn 60
forward
turn -60
forward
turn -60
forward
turn -60
forward
turn -60
forward
turn 60
forward
turn 60
forward
turn -60
forward
turn -60
forward
turn -60
forward
turn 60
forward
turn 60
forward
turn 60
forward
turn 60
forward
turn -60
forward
turn -60
forward
turn 60
forward
turn 60
forward
turn 60
forward
turn -60
forward
turn -60
forward
turn -60
forward
turn -60
forward
turn 60
forward
turn 60
forward
turn 60
forward
turn -60
forward
turn -60
forward
turn 60
forward
turn 60
forward
turn 60
forward
turn 60
forward
turn -60
forward
turn -60
forward
turn 60
forward
turn 60
forward
turn 60
forward
turn -60
forward
turn -60
forward
turn -60
forward
turn -60
forward
turn 60
forward
turn 60
forward
turn 60
forward
turn -60
forward
turn -60
forward
turn 60
forward
turn 60
forward
turn 60
forward
turn 60
forward
turn -60
forward
turn -60
forward
turn -60
forward
turn 60
forward
turn 60
forward
turn -60
forward
turn -60
forward
turn -60
forward
turn -60
forward
turn 60
forward
turn 60
forward
turn -60
forward
turn -60
forward
turn -60
forward
turn 60
forward
turn 60
forward
turn 60
forward
turn 60
forward
turn -60
forward
turn -60
forward
turn -60
forward
turn 60
forward
turn 60
forward
turn -60
forward
turn -60
forward
turn -60
forward
turn -60
forward
turn 60
forward
turn 60
forward
turn 60
forward
turn -60
forward
turn -60
forward
turn 60
forward
turn 60
forward
turn 60
forward
turn 60
forward
turn -60
forward
turn -60
forward
turn 60
forward
turn 60
forward
turn 60
forward
turn -60
forward
turn -60
forward
turn -60
forward
turn -60
forward
turn 60
forward
turn 60
forward
turn -60
forward
turn -60
forward
turn -60
forward
turn 60
forward
turn 60
forward
turn 60
forward
turn 60
forward
turn -60
forward
turn -60
forward
turn -60
forward
turn 60
forward
turn 60
forward
turn -60
forward
turn -60
forward
turn -60
forward
turn -60
forward
turn 60
forward
turn 60
forward
turn -60
forward
turn -60
forward
turn -60
forward
turn 60
forward
turn 60
forward
turn 60
forward
turn 60
forward
turn -60
forward
turn -60
forward
turn -60
forward
turn 60
forward
turn 60
forward
turn -60
forward
turn -60
forward
turn -60
forward
turn -60
forward
turn 60
forward
turn 60
forward
turn 60
forward
turn -60
forward
turn -60
forward
turn 60
forward
turn 60
forward
turn 60
forward
turn 60
forward
turn -60
forward
turn -60
forward
turn 60
forward
turn 60
forward
turn 60
forward
turn -60
forward
turn -60
forward
turn -60
forward
turn -60
forward
turn 60
forward
turn 60
forward
turn -60
forward
turn -60
forward
turn -60
forward
turn 60
forward
turn 60
forward
turn 60
forward
turn 60
forward
turn -60
forward
turn -60
forward
turn -60
forward
turn 60
forward
turn 60
forward
turn -60
forward
turn -60
forward
turn -60
forward
turn -60
forward
turn 60
forward
turn 60
forward
turn -60
forward
turn -60
forward
turn -60
forward
turn 60
forward
turn 60
forward
turn 60
forward
turn 60
forward
turn -60
forward
turn -60
forward
turn 60
forward
turn 60
forward
turn 60
forward
turn -60
forward
turn -60
forward
turn -60
forward
turn -60
forward
turn 60
forward
turn 60
forward
turn 60
forward
turn -60
forward
turn -60
forward
turn 60
forward
turn 60
forward
turn 60
forward
turn 60
forward
turn -60
forward
turn -60
forward
turn 60
forward
turn 60
forward
turn 60
forward
turn -60
forward
turn -60
forward
turn -60
forward
turn -60
forward
turn 60
forward
turn 60
forward
turn 60
forward
turn -60
forward
turn -60
forward
turn 60
forward
turn 60
forward
turn 60
forward
turn 60
forward
turn -60
forward
turn -60
forward
turn -60
forward
turn 60
forward
turn 60
forward
turn -60
forward
turn -60
forward
turn -60
forward
turn -60
forward
turn 60
forward
turn 60
forward
turn -60
forward
turn -60
forward
turn -60
forward
turn 60
forward
turn 60
forward
turn 60
forward
turn 60
forward
turn -60
forward
turn -60
forward
turn -60
forward
turn 60
forward
turn 60
forward
turn -60
forward
turn -60
forward
turn -60
forward
turn -60
forward
turn 60
forward
turn 60
forward
turn 60
forward
turn -60
forward
turn -60
forward
turn 60
forward
turn 60
forward
turn 60
forward
turn 60
forward
turn -60
forward
turn -60
forward
turn 60
forward
turn 60
forward
turn 60
forward
turn -60
forward
turn -60
forward
turn -60
forward
turn -60
forward
turn 60
forward
turn 60
forward
turn -60
forward
turn -60
forward
turn -60
forward
turn 60
forward
turn 60
forward
turn 60
forward
turn 60
forward
turn -60
forward
turn -60
forward
turn -60
forward
turn 60
forward
turn 60
forward
turn -60
forward
turn -60
forward
turn -60
forward
turn -60
forward
turn 60
forward
turn 60
forward
turn -60
forward
turn -60
forward
turn -60
forward
turn 60
forward
turn 60
forward
turn 60
forward
turn 60
forward
turn -60
forward
turn -60
forward
turn -60
forward
turn 60
forward
turn 60
forward
turn -60
forward
turn -60
forward
turn -60
forward
turn -60
forward
turn 60
forward
turn 60
forward
turn 60
forward
turn -60
forward
turn -60
forward
turn 60
forward
turn 60
forward
turn 60
forward
turn 60
forward
turn -60
forward
turn -60
forward
turn 60
forward
turn 60
forward
turn 60
forward
turn -60
forward
turn -60
forward
turn -60
forward
turn -60
forward
turn 60
forward
turn 60
forward
turn 60
forward
turn -60
forward
turn -60
forward
turn 60
forward
turn 60
forward
turn 60
forward
turn 60
forward
turn -60
forward
turn -60
forward
turn -60
forward
turn 60
forward
turn 60
forward
turn -60
forward
turn -60
forward
turn -60
forward
turn -60
forward
turn 60
forward
turn 60
forward
turn -60
forward
turn -60
forward
turn -60
forward
turn 60
forward
turn 60
forward
turn 60
forward
turn 60
forward
turn -60
forward
turn -60
forward
turn 60
forward
turn 60
forward
turn 60
forward
turn -60
forward
turn -60
forward
turn -60
forward
turn -60
forward
turn 60
forward
turn 60
forward
turn 60
forward
turn -60
forward
turn -60
forward
turn 60
forward
turn 60
forward
turn 60
forward
turn 60
forward
turn -60
forward
turn -60
forward
turn 60
forward
turn 60
forward
turn 60
forward
turn -60
forward
turn -60
forward
turn -60
forward
turn -60
forward
turn 60
forward
turn 60
forward
turn 60
forward
turn -60
forward
turn -60
forward
turn 60
forward
turn 60
forward
turn 60
forward
turn 60
forward
turn -60
forward
turn -60
forward
turn -60
forward
turn 60
forward
turn 60
forward
turn -60
forward
turn -60
forward
turn -60
forward
turn -60
forward
turn 60
forward
turn 60
forward
turn -60
forward
turn -60
forward
turn -60
forward
turn 60
forward
turn 60
forward
turn 60
forward
turn 60
forward
turn -60
forward
turn -60
forward
turn 60
forward
turn 60
forward
turn 60
forward
turn -60
forward
turn -60
forward
turn -60
forward
turn -60
forward
turn 60
forward
turn 60
forward
turn 60
forward
turn -60
forward
turn -60
forward
turn 60
forward
turn 60
forward
turn 60
forward
turn 60
forward
turn -60
forward
turn -60
forward
turn 60
forward
turn 60
forward
turn 60
forward
turn -60
forward
turn -60
forward
turn -60
forward
turn -60
forward
turn 60
forward
turn 60
forward
turn -60
forward
turn -60
forward
turn -60
forward
turn 60
forward
turn 60
forward
turn 60
forward
turn 60
forward
turn -60
forward
turn -60
forward
turn -60
forward
turn 60
forward
turn 60
forward
turn -60
forward
turn -60
forward
turn -60
forward
turn -60
forward
turn 60
forward
turn 60
forward
turn -60
forward
turn -60
forward
turn -60
forward
turn 60
forward
turn 60
forward
turn 60
forward
turn 60
forward
turn -60
forward
turn -60
forward
turn -60
forward
turn 60
forward
turn 60
forward
turn -60
forward
turn -60
forward
turn -60
forward
turn -60
forward
turn 60
forward
turn 60
forward
turn 60
forward
turn -60
forward
turn -60
forward
turn 60
forward
turn 60
forward
turn 60
forward
turn 60
forward
turn -60
forward
turn -60
forward
turn 60
forward
turn 60
forward
turn 60
forward
turn -60
forward
turn -60
forward
turn -60
forward
turn -60
forward
turn 60
forward
turn 60
forward
turn -60
forward
turn -60
forward
turn -60
forward
turn 60
forward
turn 60
forward
turn 60
forward
turn 60
forward
turn -60
forward
turn -60
forward
turn -60
forward
turn 60
forward
turn 60
forward
turn -60
forward
turn -60
forward
turn -60
forward
turn -60
forward
turn 60
forward
turn 60
forward
turn -60
forward
turn -60
forward
turn -60
forward
turn 60
forward
turn 60
forward
turn 60
forward
turn 60
forward
turn -60
forward
turn -60
forward
turn 60
forward
turn 60
forward
turn 60
forward
turn -60
forward
turn -60
forward
turn -60
forward
turn -60
forward
turn 60
forward
turn 60
forward
turn 60
forward
turn -60
forward
turn -60
forward
turn 60
forward
turn 60
forward
turn 60
forward
turn 60
forward
turn -60
forward
turn -60
forward
turn 60
forward
turn 60
forward
turn 60
forward
turn -60
forward
turn -60
forward
turn -60
forward
turn -60
forward
turn 60
forward
turn 60
forward
turn 60
forward
turn -60
forward
turn -60
forward
turn 60
forward
turn 60
forward
turn 60
forward
turn 60
forward
turn -60
forward
turn -60
forward
turn -60
forward
turn 60
forward
turn 60
forward
turn -60
forward
turn -60
forward
turn -60
forward
turn -60
forward
turn 60
forward
turn 60
forward
turn -60
forward
turn -60
forward
turn -60
forward
turn 60
forward
turn 60
forward
turn 60
forward
turn 60
forward
turn -60
forward
turn -60
forward
turn -60
forward
turn 60
forward
turn 60
forward
turn -60
forward
turn -60
forward
turn -60
forward
turn -60
forward
turn 60
forward
turn 60
forward
turn 60
forward
turn -60
forward
turn -60
forward
turn 60
forward
turn 60
forward
turn 60
forward
turn 60
forward
turn -60
forward
turn -60
forward
turn 60
forward
turn 60
forward
turn 60
forward
turn -60
forward
turn -60
forward
turn -60
forward
turn -60
forward
turn 60
forward
turn 60
forward
turn -60
forward
turn -60
forward
turn -60
forward
turn 60
forward
turn 60
forward
turn 60
forward
turn 60
forward
turn -60
forward
turn -60
forward
turn -60
forward
turn 60
forward
turn 60
forward
turn -60
forward
turn -60
forward
turn -60
forward
turn -60
forward
turn 60
forward
turn 60
forward
turn -60
forward
turn -60
forward
turn -60
forward
turn 60
forward
turn 60
forward
turn 60
forward
turn 60
forward
turn -60
forward
turn -60
forward
turn -60
forward
turn 60
forward
turn 60
forward
turn -60
forward
turn -60
forward
turn -60
forward
turn -60
forward
turn 60
forward
turn 60
forward
turn 60
forward
turn -60
forward
turn -60
forward
turn 60
forward
turn 60
forward
turn 60
forward
turn 60
forward
turn -60
forward
turn -60
forward
turn 60
forward
turn 60
forward
turn 60
forward
turn -60
forward
turn -60
forward
turn -60
forward
turn -60
forward
turn 60
forward
turn 60
forward
turn -60
forward
turn -60
forward
turn -60
forward
turn 60
forward
turn 60
forward
turn 60
forward
turn 60
forward
turn -60
forward
turn -60
forward
turn -60
forward
turn 60
forward
turn 60
forward
turn -60
forward
turn -60
forward
turn -60
forward
turn -60
forward
turn 60
forward
turn 60
forward
turn -60
forward
turn -60
forward
turn -60
forward
turn 60
forward
turn 60
forward
turn 60
forward
turn 60
forward
turn -60
forward
turn -60
forward
turn 60
forward
turn 60
forward
turn 60
forward
turn -60
forward
turn -60
forward
turn -60
forward
turn -60
forward
turn 60
forward
turn 60
forward
turn 60
forward
turn -60
forward
turn -60
forward
turn 60
forward
turn 60
forward
turn 60
forward
turn 60
forward
turn -60
forward
turn -60
forward
turn 60
forward
turn 60
forward
turn 60
forward
turn -60
forward
turn -60
forward
turn -60
forward
turn -60
forward
turn 60
forward
turn 60
forward
turn 60
forward
turn -60
forward
turn -60
forward
turn 60
forward
turn 60
forward
turn 60
forward
turn 60
forward
turn -60
forward
turn -60
forward
turn -60
forward
turn 60
forward
turn 60
forward
turn -60
forward
turn -60
forward
turn -60
forward
turn -60
forward
turn 60
forward
turn 60
forward
turn -60
forward
turn -60
forward
turn -60
forward
turn 60
forward
turn 60
forward
turn 60
forward
turn 60
forward
turn -60
forward
turn -60
forward
turn -60
forward
turn 60
forward
turn 60
forward
turn -60
forward
turn -60
forward
turn -60
forward
turn -60
forward
turn 60
forward
turn 60
forward
turn 60
forward
turn -60
forward
turn -60
forward
turn 60
forward
turn 60
forward
turn 60
forward
turn 60
forward
turn -60
forward
turn -60
forward
turn 60
forward
turn 60
forward
turn 60
forward
turn -60
forward
turn -60
forward
turn -60
forward
turn -60
forward
turn 60
forward
turn 60
forward
turn -60
forward
turn -60
forward
turn -60
forward
turn 60
forward
turn 60
forward
turn 60
forward
turn 60
forward
turn -60
forward
turn -60
forward
turn -60
forward
turn 60
forward
turn 60
forward
turn -60
forward
turn -60
forward
turn -60
forward
turn -60
forward
turn 60
forward
turn 60
forward
turn -60
forward
turn -60
forward
turn -60
forward
turn 60
forward
turn 60
forward
turn 60
forward
turn 60
forward
turn -60
forward
turn -60
forward
turn -60
forward
turn 60
forward
turn 60
forward
turn -60
forward
turn -60
forward
turn -60
forward
turn -60
forward
turn 60
forward
turn 60
forward
turn 60
forward
turn -60
forward
turn -60
forward
turn 60
forward
turn 60
forward
turn 60
forward
turn 60
forward
turn -60
forward
turn -60
forward
turn 60
forward
turn 60
forward
turn 60
forward
turn -60
forward
turn -60
forward
turn -60
forward
turn -60
forward
turn 60
forward
turn 60
forward
turn 60
forward
turn -60
forward
turn -60
forward
turn 60
forward
turn 60
forward
turn 60
forward
turn 60
forward
turn -60
forward
turn -60
forward
turn -60
forward
turn 60
forward
turn 60
forward
turn -60
forward
turn -60
forward
turn -60
forward
turn -60
forward
turn 60
forward
turn 60
forward
turn -60
forward
turn -60
forward
turn -60
forward
turn 60
forward
turn 60
forward
turn 60
forward
turn 60
forward
turn -60
forward
turn -60
forward
turn 60
forward
turn 60
forward
turn 60
forward
turn -60
forward
turn -60
forward
turn -60
forward
turn -60
forward
turn 60
forward
turn 60
forward
turn 60
forward
turn -60
forward
turn -60
forward
turn 60
forward
turn 60
forward
turn 60
forward
turn 60
forward
turn -60
forward
turn -60
forward
turn 60
forward
turn 60
forward
turn 60
forward
turn -60
forward
turn -60
forward
turn -60
forward
turn -60
forward
turn 60
forward
turn 60
forward
turn 60
forward
turn -60
forward
turn -60
forward
turn 60
forward
turn 60
forward
turn 60
forward
turn 60
forward
turn -60
forward
turn -60
forward
turn -60
forward
turn 60
forward
turn 60
forward
turn -60
forward
turn -60
forward
turn -60
forward
turn -60
forward
turn 60
forward
turn 60
forward
turn -60
forward
turn -60
forward
turn -60
forward
turn 60
forward
turn 60
forward
turn 60
forward
turn 60
forward
turn -60
forward
turn -60
forward
turn 60
forward
turn 60
forward
turn 60
forward
turn -60
forward
turn -60
forward
turn -60
forward
turn -60
forward
turn 60
forward
turn 60
forward
turn 60
forward
turn -60
forward
turn -60
forward
turn 60
forward
turn 60
forward
turn 60
forward
turn 60
forward
turn -60
forward
turn -60
forward
turn 60
forward
turn 60
forward
turn 60
forward
turn -60
forward
turn -60
forward
turn -60
forward
turn -60
forward
turn 60
forward
turn 60
forward
turn -60
forward
turn -60
forward
turn -60
forward
turn 60
forward
turn 60
forward
turn 60
forward
turn 60
forward
turn -60
forward
turn -60
forward
turn -60
forward
turn 60
forward
turn 60
forward
turn -60
forward
turn -60
forward
turn -60
forward
turn -60
forward
turn 60
forward
turn 60
forward
turn -60
forward
turn -60
forward
turn -60
forward
turn 60
forward
turn 60
forward
turn 60
forward
turn 60
forward
turn -60
forward
turn -60
forward
turn -60
forward
turn 60
forward
turn 60
forward
turn -60
forward
turn -60
forward
turn -60
forward
turn -60
forward
turn 60
forward
turn 60
forward
turn 60
forward
turn -60
forward
turn -60
forward
turn 60
forward
turn 60
forward
turn 60
forward
turn 60
forward
turn -60
forward
turn -60
forward
turn 60
forward
turn 60
forward
turn 60
forward
turn -60
forward
turn -60
forward
turn -60
forward
turn -60
forward
turn 60
forward
turn 60
forward
turn -60
forward
turn -60
forward
turn -60
forward
turn 60
forward
turn 60
forward
turn 60
forward
turn 60
forward
turn -60
forward
turn -60
forward
turn -60
forward
turn 60
forward
turn 60
forward
turn -60
forward
turn -60
forward
turn -60
forward
turn -60
forward
turn 60
forward
turn 60
forward
turn -60
forward
turn -60
forward
turn -60
forward
turn 60
forward
turn 60
forward
turn 60
forward
turn 60
forward
turn -60
forward
turn -60
forward
turn 60
forward
turn 60
forward
turn 60
forward
turn -60
forward
turn -60
forward
turn -60
forward
turn -60
forward
turn 60
forward
turn 60
forward
turn 60
forward
turn -60
forward
turn -60
forward
turn 60
forward
turn 60
forward
turn 60
forward
turn 60
forward
turn -60
forward
turn -60
forward
turn 60
forward
turn 60
forward
turn 60
forward
turn -60
forward
turn -60
forward
turn -60
forward
turn -60
forward
turn 60
forward
turn 60
forward
turn 60
forward
turn -60
forward
turn -60
forward
turn 60
forward
turn 60
forward
turn 60
forward
turn 60
forward
turn -60
forward
turn -60
forward
turn -60
forward
turn 60
forward
turn 60
forward
turn -60
forward
turn -60
forward
turn -60
forward
turn -60
forward
turn 60
forward
turn 60
forward
turn -60
forward
turn -60
forward
turn -60
forward
turn 60
forward
turn 60
forward
turn 60
forward
turn 60
forward
turn -60
forward
turn -60
forward
turn -60
forward
turn 60
forward
turn 60
forward
turn -60
forward
turn -60
forward
turn -60
forward
turn -60
forward
turn 60
forward
turn 60
forward
turn 60
forward
turn -60
forward
turn -60
forward
turn 60
forward
turn 60
forward
turn 60
forward
turn 60
forward
turn -60
forward
turn -60
forward
turn 60
forward
turn 60
forward
turn 60
forward
turn -60
forward
turn -60
forward
turn -60
forward
turn -60
forward
turn 60
forward
turn 60
forward
turn -60
forward
turn -60
forward
turn -60
forward
turn 60
forward
turn 60
forward
turn 60
forward
turn 60
forward
turn -60
forward
turn -60
forward
turn -60
forward
turn 60
forward
turn 60
forward
turn -60
forward
turn -60
forward
turn -60
forward
turn -60
forward
turn 60
forward
turn 60
forward
turn -60
forward
turn -60
forward
turn -60
forward
turn 60
forward
turn 60
forward
turn 60
forward
turn 60
forward
turn -60
forward
turn -60
forward
turn -60
forward
turn 60
forward
turn 60
forward
turn -60
forward
turn -60
forward
turn -60
forward
turn -60
forward
turn 60
forward
turn 60
forward
turn 60
forward
turn -60
forward
turn -60
forward
turn 60
forward
turn 60
forward
turn 60
forward
turn 60
forward
turn -60
forward
turn -60
forward
turn 60
forward
turn 60
forward
turn 60
forward
turn -60
forward
turn -60
forward
turn -60
forward
turn -60
forward
turn 60
forward
turn 60
forward
turn -60
forward
turn -60
forward
turn -60
forward
turn 60
forward
turn 60
forward
turn 60
forward
turn 60
forward
turn -60
forward
turn -60
forward
turn -60
forward
turn 60
forward
turn 60
forward
turn -60
forward
turn -60
forward
turn -60
forward
turn -60
forward
turn 60
forward
turn 60
forward
turn -60
forward
turn -60
forward
turn -60
forward
turn 60
forward
turn 60
forward
turn 60
forward
turn 60
forward
turn -60
forward
turn -60
forward
turn 60
forward
turn 60
forward
turn 60
forward
turn -60
forward
turn -60
forward
turn -60
forward
turn -60
forward
turn 60
forward
turn 60
forward
turn 60
forward
turn -60
forward
turn -60
forward
turn 60
forward
turn 60
forward
turn 60
forward
turn 60
forward
turn -60
forward
turn -60
forward
turn 60
forward
turn 60
forward
turn 60
forward
turn -60
forward
turn -60
forward
turn -60
forward
turn -60
forward
turn 60
forward
turn 60
forward
turn 60
forward
turn -60
forward
turn -60
forward
turn 60
forward
turn 60
forward
turn 60
forward
turn 60
forward
turn -60
forward
turn -60
forward
turn -60
forward
turn 60
forward
turn 60
forward
turn -60
forward
turn -60
forward
turn -60
forward
turn -60
forward
turn 60
forward
turn 60
forward
turn -60
forward
turn -60
forward
turn -60
forward
turn 60
forward
turn 60
forward
turn 60
forward
turn 60
forward
turn -60
forward
turn -60
forward
turn 60
forward
turn 60
forward
turn 60
forward
turn -60
forward
turn -60
forward
turn -60
forward
turn -60
forward
turn 60
forward
turn 60
forward
turn 60
forward
turn -60
forward
turn -60
forward
turn 60
forward
turn 60
forward
turn 60
forward
turn 60
forward
turn -60
forward
turn -60
forward
turn 60
forward
turn 60
forward
turn 60
forward
turn -60
forward
turn -60
forward
turn -60
forward
turn -60
forward
turn 60
forward
turn 60
forward
turn -60
forward
turn -60
forward
turn -60
forward
turn 60
forward
turn 60
forward
turn 60
forward
turn 60
forward
turn -60
forward
turn -60
forward
turn -60
forward
turn 60
forward
turn 60
forward
turn -60
forward
turn -60
forward
turn -60
forward
turn -60
forward
turn 60
forward
turn 60
forward
turn -60
forward
turn -60
forward
turn -60
forward
turn 60
forward
turn 60
forward
turn 60
forward
turn 60
forward
turn -60
forward
turn -60
forward
turn -60
forward
turn 60
forward
turn 60
forward
turn -60
forward
turn -60
forward
turn -60
forward
turn -60
forward
turn 60
forward
turn 60
forward
turn 60
forward
turn -60
forward
turn -60
forward
turn 60
forward
turn 60
forward
turn 60
forward
turn 60
forward
turn -60
forward
turn -60
forward
turn 60
forward
turn 60
forward
turn 60
forward
turn -60
forward
turn -60
forward
turn -60
forward
turn -60
forward
turn 60
forward
turn 60
forward
turn 60
forward
turn -60
forward
turn -60
forward
turn 60
forward
turn 60
forward
turn 60
forward
turn 60
forward
turn -60
forward
turn -60
forward
turn -60
forward
turn 60
forward
turn 60
forward
turn -60
forward
turn -60
forward
turn -60
forward
turn -60
forward
turn 60
forward
turn 60
forward
turn -60
forward
turn -60
forward
turn -60
forward
turn 60
forward
turn 60
forward
turn 60
forward
turn 60
forward
turn -60
forward
turn -60
forward
turn 60
forward
turn 60
forward
turn 60
forward
turn -60
forward
turn -60
forward
turn -60
forward
turn -60
forward
turn 60
forward
turn 60
forward
turn 60
forward
turn -60
forward
turn -60
forward
turn 60
forward
turn 60
forward
turn 60
forward
turn 60
forward
turn -60
forward
turn -60
forward
turn 60
forward
turn 60
forward
turn 60
forward
turn -60
forward
turn -60
forward
turn -60
forward
turn -60
forward
turn 60
forward
turn 60
forward
turn 60
forward
turn -60
forward
turn -60
forward
turn 60
forward
turn 60
forward
turn 60
forward
turn 60
forward
turn -60
forward
turn -60
forward
turn -60
forward
turn 60
forward
turn 60
forward
turn -60
forward
turn -60
forward
turn -60
forward
turn -60
forward
turn 60
forward
turn 60
forward
turn -60
forward
turn -60
forward
turn -60
forward
turn 60
forward
turn 60
forward
turn 60
forward
turn 60
forward
turn -60
forward
turn -60
forward
turn 60
forward
turn 60
forward
turn 60
forward
turn -60
forward
turn -60
forward
turn -60
forward
turn -60
forward
turn 60
forward
turn 60
forward
turn 60
forward
turn -60
forward
turn -60
forward
turn 60
forward
turn 60
forward
turn 60
forward
turn 60
forward
turn -60
forward
turn -60
forward
turn 60
forward
turn 60
forward
turn 60
forward
turn -60
forward
turn -60
forward
turn -60
forward
turn -60
forward
turn 60
forward
turn 60
forward
turn -60
forward
turn -60
forward
turn -60
forward
turn 60
forward
turn 60
forward
turn 60
forward
turn 60
forward
turn -60
forward
turn -60
forward
turn -60
forward
turn 60
forward
turn 60
forward
turn -60
forward
turn -60
forward
turn -60
forward
turn -60
forward
turn 60
forward
turn 60
forward
turn -60
forward
turn -60
forward
turn -60
forward
turn 60
forward
turn 60
forward
turn 60
forward
turn 60
forward
turn -60
forward
turn -60
forward
turn -60
forward
turn 60
forward
turn 60
forward
turn -60
forward
turn -60
forward
turn -60
forward
turn -60
forward
turn 60
forward
turn 60
forward
turn 60
forward
turn -60
forward
turn -60
forward
turn 60
forward
turn 60
forward
turn 60
forward
turn 60
forward
turn -60
forward
turn -60
forward
turn 60
forward
turn 60
forward
turn 60
forward
turn -60
forward
turn -60
forward
turn -60
forward
turn -60
forward
turn 60
forward
turn 60
forward
turn 60
forward
turn -60
forward
turn -60
forward
turn 60
forward
turn 60
forward
turn 60
forward
turn 60
forward
turn -60
forward
turn -60
forward
turn -60
forward
turn 60
forward
turn 60
forward
turn -60
forward
turn -60
forward
turn -60
forward
turn -60
forward
turn 60
forward
turn 60
forward
turn -60
forward
turn -60
forward
turn -60
forward
turn 60
forward
turn 60
forward
turn 60
forward
turn 60
forward
turn -60
forward
turn -60
forward
turn 60
forward
turn 60
forward
turn 60
forward
turn -60
forward
turn -60
forward
turn -60
forward
turn -60
forward
turn 60
forward
turn 60
forward
turn 60
forward
turn -60
forward
turn -60
forward
turn 60
forward
turn 60
forward
turn 60
forward
turn 60
forward
turn -60
forward
turn -60
forward
turn 60
forward
turn 60
forward
turn 60
forward
turn -60
forward
turn -60
forward
turn -60
forward
turn -60
forward
turn 60
forward
turn 60
forward
turn 60
forward
turn -60
forward
turn -60
forward
turn 60
forward
turn 60
forward
turn 60
forward
turn 60
forward
turn -60
forward
turn -60
forward
turn -60
forward
turn 60
forward
turn 60
forward
turn -60
forward
turn -60
forward
turn -60
forward
turn -60
forward
turn 60
forward
turn 60
forward
turn -60
forward
turn -60
forward
turn -60
forward
turn 60
forward
turn 60
forward
turn 60
forward
turn 60
forward
turn -60
forward
turn -60
forward
turn -60
forward
turn 60
forward
turn 60
forward
turn -60
forward
turn -60
forward
turn -60
forward
turn -60
forward
turn 60
forward
turn 60
forward
turn 60
forward
turn -60
forward
turn -60
forward
turn 60
forward
turn 60
forward
turn 60
forward
turn 60
forward
turn -60
forward
turn -60
forward
turn 60
forward
turn 60
forward
turn 60
forward
turn -60
forward
turn -60
forward
turn -60
forward
turn -60
forward
turn 60
forward
turn 60
forward
turn -60
forward
turn -60
forward
turn -60
forward
turn 60
forward
turn 60
forward
turn 60
forward
turn 60
forward
turn -60
forward
turn -60
forward
turn -60
forward
turn 60
forward
turn 60
forward
turn -60
forward
turn -60
forward
turn -60
forward
turn -60
forward
turn 60
forward
turn 60
forward
turn -60
forward
turn -60
forward
turn -60
forward
turn 60
forward
turn 60
forward
turn 60
forward
turn 60
forward
turn -60
forward
turn -60
forward
turn -60
forward
turn 60
forward
turn 60
forward
turn -60
forward
turn -60
forward
turn -60
forward
turn -60
forward
turn 60
forward
turn 60
forward
turn 60
forward
turn -60
forward
turn -60
forward
turn 60
forward
turn 60
forward
turn 60
forward
turn 60
forward
turn -60
forward
turn -60
forward
turn 60
forward
turn 60
forward
turn 60
forward
turn -60
forward
turn -60
forward
turn -60
forward
turn -60
forward
turn 60
forward
turn 60
forward
turn -60
forward
turn -60
forward
turn -60
forward
turn 60
forward
turn 60
forward
turn 60
forward
turn 60
forward
turn -60
forward
turn -60
forward
turn -60
forward
turn 60
forward
turn 60
forward
turn -60
forward
turn -60
forward
turn -60
forward
turn -60
forward
turn 60
forward
turn 60
forward
turn -60
forward
turn -60
forward
turn -60
forward
turn 60
forward
turn 60
forward
turn 60
forward
turn 60
forward
turn -60
forward
turn -60
forward
turn 60
forward
turn 60
forward
turn 60
forward
turn -60
forward
turn -60
forward
turn -60
forward
turn -60
forward
turn 60
forward
turn 60
forward
turn 60
forward
turn -60
forward
turn -60
forward
turn 60
forward
turn 60
forward
turn 60
forward
turn 60
forward
turn -60
forward
turn -60
forward
turn 60
forward
turn 60
forward
turn 60
forward
turn -60
forward
turn -60
forward
turn -60
forward
turn -60
forward
turn 60
forward
turn 60
forward
turn 60
forward
turn -60
forward
turn -60
forward
turn 60
forward
turn 60
forward
turn 60
forward
turn 60
forward
turn -60
forward
turn -60
forward
turn -60
forward
turn 60
forward
turn 60
forward
turn -60
forward
turn -60
forward
turn -60
forward
turn -60
forward
turn 60
forward
turn 60
forward
turn -60
forward
turn -60
forward
turn -60
forward
turn 60
forward
turn 60
forward
turn 60
forward
turn 60
forward
turn -60
forward
turn -60
forward
done